X:1
T:Title
%%score { ( 1 4 ) | ( 2 3 ) }
L:1/8
M:4/4
K:Eb
V:1 treble nm="Grand Piano"
V:4 treble 
V:2 bass 
V:3 bass 
V:1
 z4 z2[Q:1/4=94] BB | B2 GE B,2 [A,DF]>[B,DG] | F2 E4 EE | E2 Ac e2 dc | B6 GB | %5
 BA [DFA]>[_D=EG] [=DFA]2 [DFA][B,GB] | [FA]G G>_G =G2 GG | G2 FF Fedc |[M:7/8] B-B-B- B- B3 | %9
[M:1/4] B>c |[M:4/4] z2 [FA]4 z2 |[M:3/4] z2 [EG]4 |[M:1/4] GG | %13
[M:4/4] .[Ge]2 [EGc][EGB] [B,EB]2 [B,DA][B,EG] | B,2- [B,G]2 [DFA]2 G>A | %15
 G2 [A,F]-[A,-DF-] [A,-DF-][A,DF] F>G | F2[K:bass] B,B, B,B,E[K:treble]E | e2 z2 z4 | %18
[M:3/4] [DF]4 z2 |] %19
V:2
 z4 z2 B,B, | B,2 G,E, B,,2 B,,>B,, | [E,A,D]2 [E,G,B,]4 [G,_D][G,D] | %3
 [A,C]2 [A,CE][A,E] [A,CE]2 [A,B,E][A,E] | [E,G,E]6 [E,B,E][G,B,E] | [F,B,D]2 B,,>B,, B,,2 B,,B,, | %6
 z E [E,B,E]>[E,=A,E] [F,B,E]2 [E,B,E][E,B,E] | %7
 [F,B,E]2 [F,=A,E][F,A,E] [A,E][K:treble][CG][F,A,F][K:bass][F,A,E] | %8
[M:7/8] B,,2- [B,,-F,] [B,,-G,] [B,,A,]3 |[M:1/4][K:treble] G>A |[M:4/4] G2 B,B, B,B, F>G | %11
[M:3/4] F2[K:bass] B,G, E,E, |[M:1/4] [E,B,E][E,B,E] |[M:4/4] z[K:treble] d[K:bass]E,E, G,2 F,E, | %14
 z2 E2 B,,2 B,>C | B,2 B,,B,, B,,B,, A,>B, | A,2 E,E, E,E,E,E, | .[A,=B,]2 z2 z4 | %18
[M:3/4] B,2 z2 z2 |] %19
V:3
 x8 | x8 | x8 | x8 | x8 | x8 | [E,B,]2 z2 z4 | z4 F,2[K:treble] z2[K:bass] |[M:7/8] F,2 z z z z2 | %9
[M:1/4][K:treble] x2 |[M:4/4] x8 |[M:3/4] x2[K:bass] x4 |[M:1/4] x2 | %13
[M:4/4] [E,B,]2[K:treble][K:bass] z2 z4 | B,,4 z4 | x8 | x8 | %17
 E-[G,E][_G,=A,E][F,_A,E] [E,=G,E]2 [E,_B,E][E,B,E] |[M:3/4] B,,4 [E,G,B,]2 |] %19
V:4
 x8 | x8 | x8 | x8 | x8 | x8 | x8 | x8 |[M:7/8] D2 D E F3 |[M:1/4] x2 |[M:4/4] B2 z2 DD A>B | %11
[M:3/4] A2 z B, B,B, |[M:1/4] x2 |[M:4/4] x8 | [DF]2 z2 z4 | z2 .D2 z4 | %16
 z2[K:bass] [G,E]4 z2[K:treble] | z B,ee e2 GB |[M:3/4] z2 A,2 E2 |] %19

